resources/img/scalable/actions/flypie-hot-symbolic.svg

<?xml version="1.0" encoding="UTF-8" standalone="no"?>
<svg
   xmlns:dc="http://purl.org/dc/elements/1.1/"
   xmlns:cc="http://creativecommons.org/ns#"
   xmlns:rdf="http://www.w3.org/1999/02/22-rdf-syntax-ns#"
   xmlns:svg="http://www.w3.org/2000/svg"
   xmlns="http://www.w3.org/2000/svg"
   xmlns:sodipodi="http://sodipodi.sourceforge.net/DTD/sodipodi-0.dtd"
   xmlns:inkscape="http://www.inkscape.org/namespaces/inkscape"
   width="4.2333mm"
   height="4.2333mm"
   version="1.1"
   viewBox="0 0 4.2333 4.2333"
   id="svg17081"
   sodipodi:docname="flypie-hot-symbolic.svg"
   inkscape:version="1.0.2 (e86c870879, 2021-01-15)">
  <defs
     id="defs17085" />
  <sodipodi:namedview
     pagecolor="#ffffff"
     bordercolor="#666666"
     borderopacity="1"
     objecttolerance="10"
     gridtolerance="10"
     guidetolerance="10"
     inkscape:pageopacity="0"
     inkscape:pageshadow="2"
     inkscape:window-width="1461"
     inkscape:window-height="1061"
     id="namedview17083"
     showgrid="false"
     inkscape:zoom="45.937859"
     inkscape:cx="3.809494"
     inkscape:cy="7.9999374"
     inkscape:window-x="0"
     inkscape:window-y="32"
     inkscape:window-maximized="0"
     inkscape:current-layer="svg17081"
     inkscape:document-rotation="0" />
  <metadata
     id="metadata17051">
    <rdf:RDF>
      <cc:Work
         rdf:about="">
        <dc:format>image/svg+xml</dc:format>
        <dc:type
           rdf:resource="http://purl.org/dc/dcmitype/StillImage" />
        <dc:title></dc:title>
      </cc:Work>
    </rdf:RDF>
  </metadata>
  <path
     id="path13613"
     style="fill:#2e3436;fill-opacity:1;stroke-width:0.79375;stroke-linecap:round;stop-color:#000000"
     d="M 2.4341139,0.26254817 C 1.3155112,0.82939941 1.4823971,1.6649588 1.8563724,2.3864484 1.5283367,1.9521376 1.3313201,1.4552422 1.3272058,1.0635318 0.89708328,1.3281152 0.53345584,1.8572818 0.53345584,2.3864484 c 0,0.688258 0.43812352,1.2743418 1.05058096,1.494483 C 1.4536766,3.6583587 1.4859373,3.3624963 1.7695574,3.0830461 2.3355831,2.5253388 2.1824502,2.3595774 2.1824502,2.3595774 2.781234,2.6630094 2.0969792,3.1898134 2.2930381,3.3858696 2.4408846,3.5337188 2.757993,3.0183263 2.7601944,2.808644 c 0.2248773,0.2538572 0.3302105,0.443312 0.3302105,0.7265723 0,0.048704 -0.0036,0.094856 -0.00982,0.1384908 C 3.7451746,3.1960258 3.9475332,2.2419939 3.2030619,1.5084657 2.145652,0.46660012 2.4341166,0.26254817 2.4341166,0.26254817 Z" />
</svg>

<svg xmlns="http://www.w3.org/2000/svg" width="16" height="16" viewBox="0 0 4.233 4.233"><path style="fill:#2e3436;fill-opacity:1;stroke-width:.79375;stroke-linecap:round;stop-color:#000" d="M2.434.263c-1.118.566-.952 1.402-.578 2.123-.328-.434-.525-.93-.529-1.322-.43.264-.794.793-.794 1.322 0 .689.439 1.275 1.051 1.495-.13-.223-.098-.519.186-.798.566-.558.412-.723.412-.723.6.303-.085.83.111 1.026.148.148.465-.368.467-.577.225.254.33.443.33.726a.98.98 0 0 1-.01.139c.665-.478.868-1.432.123-2.166C2.146.467 2.434.263 2.434.263Z"/></svg>
